images/sit.svg

<svg width="21" height="21" viewBox="0 0 21 21" fill="none" xmlns="http://www.w3.org/2000/svg">
<g filter="url(#filter0_d_3740_910)">
<circle cx="10.5" cy="8.5" r="6.5" fill="white"/>
<path d="M9.54125 9.97875L7.94875 8.38625C7.85125 8.28875 7.73207 8.24 7.59125 8.24C7.45043 8.24 7.32582 8.29418 7.2175 8.4025C7.12 8.5 7.07125 8.61918 7.07125 8.76C7.07125 8.90082 7.12 9.02 7.2175 9.1175L9.2 11.1162C9.2975 11.2137 9.41125 11.2625 9.54125 11.2625C9.67125 11.2625 9.785 11.2137 9.8825 11.1162L13.7662 7.2325C13.8746 7.12418 13.9287 6.99957 13.9287 6.85875C13.9287 6.71793 13.8746 6.59332 13.7662 6.485C13.6579 6.3875 13.5306 6.34145 13.3844 6.34687C13.2381 6.3523 13.1163 6.40375 13.0187 6.50125L9.54125 9.97875ZM10.5 15C9.61168 15 8.77207 14.8294 7.98125 14.4881C7.19043 14.1469 6.4998 13.6811 5.90937 13.0906C5.31896 12.5002 4.85312 11.8096 4.51187 11.0187C4.17062 10.2279 4 9.38832 4 8.5C4 7.60082 4.17062 6.75582 4.51187 5.965C4.85312 5.17418 5.31896 4.48625 5.90937 3.90125C6.4998 3.31625 7.19043 2.85312 7.98125 2.51187C8.77207 2.17062 9.61168 2 10.5 2C11.3992 2 12.2442 2.17062 13.035 2.51187C13.8258 2.85312 14.5138 3.31625 15.0988 3.90125C15.6838 4.48625 16.1469 5.17418 16.4881 5.965C16.8294 6.75582 17 7.60082 17 8.5C17 9.38832 16.8294 10.2279 16.4881 11.0187C16.1469 11.8096 15.6838 12.5002 15.0988 13.0906C14.5138 13.6811 13.8258 14.1469 13.035 14.4881C12.2442 14.8294 11.3992 15 10.5 15Z" fill="#0367FD"/>
</g>
<defs>
<filter id="filter0_d_3740_910" x="0" y="0" width="21" height="21" filterUnits="userSpaceOnUse" color-interpolation-filters="sRGB">
<feFlood flood-opacity="0" result="BackgroundImageFix"/>
<feColorMatrix in="SourceAlpha" type="matrix" values="0 0 0 0 0 0 0 0 0 0 0 0 0 0 0 0 0 0 127 0" result="hardAlpha"/>
<feOffset dy="2"/>
<feGaussianBlur stdDeviation="2"/>
<feComposite in2="hardAlpha" operator="out"/>
<feColorMatrix type="matrix" values="0 0 0 0 0.494118 0 0 0 0 0.701961 0 0 0 0 1 0 0 0 0.3 0"/>
<feBlend mode="normal" in2="BackgroundImageFix" result="effect1_dropShadow_3740_910"/>
<feBlend mode="normal" in="SourceGraphic" in2="effect1_dropShadow_3740_910" result="shape"/>
</filter>
</defs>
</svg>

<svg xmlns="http://www.w3.org/2000/svg" width="21" height="21" fill="none" viewBox="0 0 21 21"><g filter="url(#a)"><circle cx="10.5" cy="8.5" r="6.5" fill="#fff"/><path fill="#0367fd" d="M9.541 9.979 7.95 8.386a.514.514 0 0 0-.731.016.5.5 0 0 0-.147.358q0 .21.147.357l1.982 2a.47.47 0 0 0 .683 0l3.883-3.885a.514.514 0 0 0 0-.747.52.52 0 0 0-.382-.138.53.53 0 0 0-.365.154zM10.5 15q-1.332 0-2.519-.512a6.6 6.6 0 0 1-2.072-1.397 6.6 6.6 0 0 1-1.397-2.072A6.3 6.3 0 0 1 4 8.5q0-1.35.512-2.535a6.5 6.5 0 0 1 1.397-2.064 6.7 6.7 0 0 1 2.072-1.39A6.3 6.3 0 0 1 10.5 2q1.35 0 2.535.512 1.186.511 2.064 1.39a6.6 6.6 0 0 1 1.39 2.063q.51 1.186.511 2.535 0 1.332-.512 2.519a6.7 6.7 0 0 1-1.39 2.072 6.5 6.5 0 0 1-2.063 1.397A6.3 6.3 0 0 1 10.5 15"/></g><defs><filter id="a" width="21" height="21" x="0" y="0" color-interpolation-filters="sRGB" filterUnits="userSpaceOnUse"><feFlood flood-opacity="0" result="BackgroundImageFix"/><feColorMatrix in="SourceAlpha" result="hardAlpha" values="0 0 0 0 0 0 0 0 0 0 0 0 0 0 0 0 0 0 127 0"/><feOffset dy="2"/><feGaussianBlur stdDeviation="2"/><feComposite in2="hardAlpha" operator="out"/><feColorMatrix values="0 0 0 0 0.494118 0 0 0 0 0.701961 0 0 0 0 1 0 0 0 0.3 0"/><feBlend in2="BackgroundImageFix" result="effect1_dropShadow_3740_910"/><feBlend in="SourceGraphic" in2="effect1_dropShadow_3740_910" result="shape"/></filter></defs></svg>
